X:412
T:America. (p).1701.PLFD1.412
M:4/4
L:1/4
Q:1/2=80
S:Playford, Dancing Master,11th Ed.,1701.
O:England;London
N:This one needs you to refer to Barlow.
Z:Chris Partington.
K:F
A/B/4c/4|dDFA|BA/G/Ac|(f/e/)(d/c/) (B/A/)(G/F/)|F3:|
|:c|GA/B/A>d|Ad/c/=BG|c>d (c/4d/4e/) (d/c/)|c3d/e/4f/4|
f/e/f/d/ e/d/e/^c/|f=B^cB/A/|d>e (d/4e/4f/) (e/d/)|d3:|
M:3/4
L:1/8
Q:3/4=50
|:"^17th Ed on"fedef2|e2a2A2|d2e2f2|edefe2|\
fed2f2|e2a2a2|d2e2^c2|"^fine"d6:|
|:agf2a2|g2c'2c2|f2g2a2|gfgeg2|agf2a2|g2c'2c2|f2g2e2|f4:|
